treasure-chest.svg

<svg fill="currentColor" viewBox="0 0 24 24"><path d="M5 4h14a3 3 0 0 1 3 3v4h-7v-1H9v1H2V7a3 3 0 0 1 3-3m6 7h2v2h-2zm-9 1h7v1l2 2h2l2-2v-1h7v8H2z"/></svg>

<svg  viewBox="0 0 24 24" fill="currentColor"><path  d="M5,4H19A3,3 0 0,1 22,7V11H15V10H9V11H2V7A3,3 0 0,1 5,4M11,11H13V13H11V11M2,12H9V13L11,15H13L15,13V12H22V20H2V12Z"/></svg>
